papirus/22x22/apps/eid-viewer.svg

<svg height="22" viewBox="0 0 22 22" width="22" xmlns="http://www.w3.org/2000/svg"><g transform="translate(-1 -1)"><path d="m3 5h18c .5345 0 1 .46548 1 1v12c0 .5345-.46548 1-1 1h-18c-.5345 0-1-.4655-1-1v-12c0-.5345.46548-1 1-1z" fill="#ccc"/><path d="m27.921 10.363c4.54.001 4.143253 4.503 4.143253 4.503v3.939c0 1.449-1.970496 4.219931-1.970496 4.219931v2.532383l4.63424 2.168686v2.896h-15.891v-2.896l4.635472-2.168686v-2.532383c0 0-1.976202-2.767931-1.965202-4.219931v-3.939c0 0-.39727-4.502 4.14273-4.503" opacity=".2" transform="matrix(.37757 0 0 .394885 7.8875 3.9078315)"/><path d="m4 14l-1-2 1-2z" fill="#289b36"/><path d="m2 17.5v.5c0 .554.446 1 1 1h18c .554 0 1-.446 1-1v-.5c0 .554-.446 1-1 1h-18c-.554 0-1-.446-1-1z" opacity=".3"/><path d="m3 5c-.554 0-1 .446-1 1v .5c0-.554.446-1 1-1h18c .554 0 1 .446 1 1v-.5c0-.554-.446-1-1-1z" fill="#fff" opacity=".2"/><path d="m5.625 10h3.75c.3172435 0 .625.328274.625.666667v2.666667c0 .338393-.3077565.666666-.625.666666h-3.75c-.3172438 0-.625-.328273-.625-.666666v-2.666667c0-.338393.3077562-.666667.625-.666667z" fill="#ecb64e"/><path d="m21 5.5c.554 0 1 .446 1 1v5.5h-20v-5.5c0-.554.446-1 1-1z" opacity=".1"/><circle cx="-1.4112027" cy="15.553364" fill="#484848" r="4.0000181" transform="matrix(.70710678 -.70710678 .70710678 .70710678 0 0)"/><rect fill="#484848" height="5.5000253" rx="1.0000045" transform="matrix(.70710678 -.70710678 .70710678 .70710678 0 0)" width="2.0000091" x="-2.4112072" y="18.553379"/><path d="m10 10.5c-1.1128 0-2 .88848-2 2 0 1.11148.8872 2 2 2 1.1128 0 2-.88848 2-2 0-1.11152-.8872-2-2-2z" opacity=".2" stroke-width="1.55499995"/><path d="m10 9.9999997c-1.1128 0-2 .8884803-2 2.0000003 0 1.11148.8872 2 2 2 1.1128 0 2-.88848 2-2 0-1.11152-.8872-2.0000003-2-2.0000003z" fill="#5d99ff" stroke-width="1.55499995"/></g></svg>

<?xml version="1.0" encoding="UTF-8" standalone="no"?>
<svg
   xmlns:dc="http://purl.org/dc/elements/1.1/"
   xmlns:cc="http://creativecommons.org/ns#"
   xmlns:rdf="http://www.w3.org/1999/02/22-rdf-syntax-ns#"
   xmlns:svg="http://www.w3.org/2000/svg"
   xmlns="http://www.w3.org/2000/svg"
   xmlns:sodipodi="http://sodipodi.sourceforge.net/DTD/sodipodi-0.dtd"
   xmlns:inkscape="http://www.inkscape.org/namespaces/inkscape"
   id="svg2"
   version="1.1"
   viewBox="0 0 22 22"
   inkscape:version="0.91 r13725"
   sodipodi:docname="eid-viewer.svg"
   width="22"
   height="22">
  <defs
     id="defs20" />
  <sodipodi:namedview
     pagecolor="#474747"
     bordercolor="#666666"
     borderopacity="1"
     objecttolerance="10"
     gridtolerance="10"
     guidetolerance="10"
     inkscape:pageopacity="0"
     inkscape:pageshadow="2"
     inkscape:window-width="1600"
     inkscape:window-height="843"
     id="namedview18"
     showgrid="false"
     inkscape:zoom="11.42"
     inkscape:cx="11.673934"
     inkscape:cy="10.377709"
     inkscape:window-x="0"
     inkscape:window-y="0"
     inkscape:window-maximized="1"
     inkscape:current-layer="svg2">
    <inkscape:grid
       type="xygrid"
       id="grid4148" />
  </sodipodi:namedview>
  <metadata
     id="metadata83">
    <rdf:RDF>
      <cc:Work
         rdf:about="">
        <dc:format>image/svg+xml</dc:format>
        <dc:type
           rdf:resource="http://purl.org/dc/dcmitype/StillImage" />
        <dc:title></dc:title>
      </cc:Work>
    </rdf:RDF>
  </metadata>
  <g
     id="g4259"
     transform="translate(-1,-1)">
    <path
       sodipodi:nodetypes="sssssssss"
       style="fill:#cccccc;fill-opacity:1"
       d="m 3,5 18,0 c 0.5345,0 1,0.46548 1,1 l 0,12 c 0,0.5345 -0.46548,1 -1,1 L 3,19 C 2.4655,19 2,18.5345 2,18 L 2,6 C 2,5.4655 2.46548,5 3,5 Z"
       id="rect29"
       inkscape:connector-curvature="0" />
    <g
       style="opacity:0.2;fill:#000000;fill-opacity:1"
       transform="matrix(0.37757,0,0,0.394885,7.8875,3.9078315)"
       id="g31">
      <path
         sodipodi:nodetypes="ccsccccccccccc"
         style="fill:#000000;fill-opacity:1"
         inkscape:connector-curvature="0"
         d="m 27.921,10.363 c 4.54,0.001 4.143253,4.503 4.143253,4.503 l 0,3.939 c 0,1.449 -1.970496,4.219931 -1.970496,4.219931 l 0,2.532383 4.63424,2.168686 0,2.896 -15.891,0 0,-2.896 4.635472,-2.168686 0,-2.532383 c 0,0 -1.976202,-2.767931 -1.965202,-4.219931 l 0,-3.939 c 0,0 -0.39727,-4.502 4.14273,-4.503"
         id="path33" />
    </g>
    <path
       style="fill:#289b36;fill-opacity:1"
       inkscape:connector-curvature="0"
       d="M 4,14 3,12 4,10 Z"
       id="path35" />
    <path
       d="M 2,17.5 2,18 c 0,0.554 0.446,1 1,1 l 18,0 c 0.554,0 1,-0.446 1,-1 l 0,-0.5 c 0,0.554 -0.446,1 -1,1 l -18,0 c -0.554,0 -1,-0.446 -1,-1 z"
       id="path4447"
       inkscape:connector-curvature="0"
       style="opacity:0.3" />
    <path
       d="M 3,5 C 2.446,5 2,5.446 2,6 l 0,0.5 c 0,-0.554 0.446,-1 1,-1 l 18,0 c 0.554,0 1,0.446 1,1 L 22,6 C 22,5.446 21.554,5 21,5 Z"
       id="rect4199"
       inkscape:connector-curvature="0"
       style="opacity:0.2;fill:#ffffff" />
    <path
       style="fill:#ecb64e;fill-opacity:1"
       inkscape:connector-curvature="0"
       d="m 5.625,10 3.75,0 C 9.6922435,10 10,10.328274 10,10.666667 l 0,2.666667 C 10,13.671727 9.6922435,14 9.375,14 l -3.75,0 C 5.3077562,14 5,13.671727 5,13.333334 L 5,10.666667 C 5,10.328274 5.3077562,10 5.625,10 Z"
       id="rect3574" />
    <path
       sodipodi:nodetypes="ssccsss"
       d="m 21,5.5 c 0.554,0 1,0.446 1,1 L 22,12 2,12 2,6.5 c 0,-0.554 0.446,-1 1,-1 z"
       style="opacity:0.1;enable-background:new"
       id="path4009"
       inkscape:connector-curvature="0" />
    <circle
       transform="matrix(0.70710678,-0.70710678,0.70710678,0.70710678,0,0)"
       r="4.0000181"
       cy="15.553364"
       cx="-1.4112027"
       id="path4366"
       style="fill:#484848" />
    <rect
       transform="matrix(0.70710678,-0.70710678,0.70710678,0.70710678,0,0)"
       x="-2.4112072"
       y="18.553379"
       width="2.0000091"
       height="5.5000253"
       ry="1.0000045"
       rx="1.0000045"
       id="rect4368"
       style="fill:#484848" />
    <path
       inkscape:connector-curvature="0"
       d="m 10,10.5 c -1.1128,0 -2,0.88848 -2,2 0,1.11148 0.8872,2 2,2 1.1128,0 2,-0.88848 2,-2 0,-1.11152 -0.8872,-2 -2,-2 z"
       style="color:#000000;opacity:0.2;fill:#000000;fill-opacity:1;stroke-width:1.55499995"
       id="path4231" />
    <path
       id="path3430"
       style="color:#000000;fill:#5d99ff;stroke-width:1.55499995"
       d="M 10,9.9999997 C 8.8872,9.9999997 8,10.88848 8,12 c 0,1.11148 0.8872,2 2,2 1.1128,0 2,-0.88848 2,-2 0,-1.11152 -0.8872,-2.0000003 -2,-2.0000003 z"
       inkscape:connector-curvature="0" />
  </g>
</svg>
